Assets/SVG APPS/Paint3D.svg

<?xml version="1.0" encoding="UTF-8"?>
<svg xmlns="http://www.w3.org/2000/svg" xmlns:xlink="http://www.w3.org/1999/xlink" width="95px" height="95px" viewBox="0 0 95 95" version="1.1">
<g id="surface1">
<path style="fill:none;stroke-width:15;stroke-linecap:butt;stroke-linejoin:miter;stroke:rgb(0%,0%,0%);stroke-opacity:1;stroke-miterlimit:10;" d="M 133.010526 469.094737 L 378.989474 469.094737 L 502 256 L 378.989474 42.905263 L 133.010526 42.905263 L 10 256 Z M 133.010526 469.094737 " transform="matrix(0.185547,0,0,0.185547,0,0)"/>
<path style="fill:none;stroke-width:12;stroke-linecap:butt;stroke-linejoin:miter;stroke:rgb(0%,0%,0%);stroke-opacity:1;stroke-miterlimit:10;" d="M 115.410526 241.494737 C 156.8 263.494737 212.105263 255.789474 250.905263 232.294737 C 265.494737 223.494737 278.610526 211.789474 289.094737 198.4 C 292.294737 194.294737 297.2 184.694737 303.789474 187.789474 C 313.894737 192.505263 304.105263 203.2 300 208.210526 C 287.6 223.494737 272.4 236.8 255.410526 246.8 C 223.789474 265.305263 186.505263 272.294737 150.4 267.2 C 137.010526 265.305263 124.8 260.210526 111.810526 256.694737 C 106.610526 284.589474 110.105263 315.094737 121.894737 341.010526 C 125.094737 348.105263 128.505263 357.705263 134.505263 362.989474 C 143.410526 370.8 160.589474 372.8 171.894737 374.905263 C 218.8 383.894737 269.6 369.094737 305.6 338 C 324.210526 321.894737 339.094737 301.705263 348.8 278.989474 C 350.989474 273.705263 354.8 261.494737 362.905263 266.505263 C 370.4 271.094737 363.705263 282.4 361.010526 288 C 351.705263 307.305263 340 325.810526 324.4 340.694737 C 278.694737 383.894737 214.4 403.094737 153.094737 385.810526 C 163.410526 399.2 181.705263 409.6 197.094737 416.210526 C 252.210526 439.894737 317.494737 428.589474 360.4 385.810526 C 410.210526 336 415.789474 257.094737 377.494737 199.2 L 376.610526 199.2 C 376.610526 214.105263 377.494737 229.389474 374.505263 244.105263 C 373.094737 250.8 365.010526 256.694737 360.610526 248.505263 C 357.094737 242 361.705263 228 362.210526 220.694737 C 363.010526 209.494737 364.610526 189.810526 360 179.410526 C 355.810526 169.894737 337.894737 158 328.210526 155.2 C 326.8 161.094737 324.505263 170.505263 319.894737 174.694737 C 316 178.210526 309.810526 176.4 308.294737 171.410526 C 306.4 165.2 313.705263 152.4 315.6 146.294737 C 299.894737 136.610526 284.8 123.810526 284.294737 104.105263 C 284.105263 97.305263 286 90.210526 286.905263 83.494737 C 269.010526 85.894737 250.294737 96.505263 234.905263 105.305263 C 200.610526 124.8 171.010526 152.210526 146.8 183.094737 C 133.305263 200.210526 120.4 220.105263 115.410526 241.494737 Z M 115.410526 241.494737 " transform="matrix(0.185547,0,0,0.185547,0,0)"/>
</g>
</svg>

<?xml version="1.0" encoding="utf-8"?>
<!-- Generator: Adobe Illustrator 24.3.0, SVG Export Plug-In . SVG Version: 6.00 Build 0)  -->
<svg version="1.1" id="Слой_1" xmlns="http://www.w3.org/2000/svg" xmlns:xlink="http://www.w3.org/1999/xlink" x="0px" y="0px"
	 viewBox="0 0 512 512" style="enable-background:new 0 0 512 512;" xml:space="preserve">
<style type="text/css">
	.st0{fill:none;stroke:#000000;stroke-width:15;stroke-miterlimit:10;}
	.st1{fill:none;stroke:#000000;stroke-width:12;stroke-miterlimit:10;}
</style>
<polygon class="st0" points="133,469.1 379,469.1 502,256 379,42.9 133,42.9 10,256 "/>
<g transform="matrix(1.3333334 0 0 1.3333334 0 0)">
</g>
<path class="st1" d="M115.4,241.5c41.4,22,96.7,14.3,135.5-9.2c14.6-8.8,27.7-20.5,38.2-33.9c3.2-4.1,8.1-13.7,14.7-10.6
	c10.1,4.7,0.3,15.4-3.8,20.4c-12.4,15.3-27.6,28.6-44.6,38.6c-31.6,18.5-68.9,25.5-105,20.4c-13.4-1.9-25.6-7-38.6-10.5
	c-5.2,27.9-1.7,58.4,10.1,84.3c3.2,7.1,6.6,16.7,12.6,22c8.9,7.8,26.1,9.8,37.4,11.9c46.9,9,97.7-5.8,133.7-36.9
	c18.6-16.1,33.5-36.3,43.2-59c2.2-5.3,6-17.5,14.1-12.5c7.5,4.6,0.8,15.9-1.9,21.5c-9.3,19.3-21,37.8-36.6,52.7
	c-45.7,43.2-110,62.4-171.3,45.1c10.3,13.4,28.6,23.8,44,30.4c55.1,23.7,120.4,12.4,163.3-30.4c49.8-49.8,55.4-128.7,17.1-186.6
	h-0.9c0,14.9,0.9,30.2-2.1,44.9c-1.4,6.7-9.5,12.6-13.9,4.4c-3.5-6.5,1.1-20.5,1.6-27.8c0.8-11.2,2.4-30.9-2.2-41.3
	c-4.2-9.5-22.1-21.4-31.8-24.2c-1.4,5.9-3.7,15.3-8.3,19.5c-3.9,3.5-10.1,1.7-11.6-3.3c-1.9-6.2,5.4-19,7.3-25.1
	c-15.7-9.7-30.8-22.5-31.3-42.2c-0.2-6.8,1.7-13.9,2.6-20.6c-17.9,2.4-36.6,13-52,21.8c-34.3,19.5-63.9,46.9-88.1,77.8
	C133.3,200.2,120.4,220.1,115.4,241.5z"/>
</svg>
